X:1
T:Beyond the Swelling Flood
T:Beyond the Swelling Flood
T:John Harrison Tenney
T:A. E. Childs, 1874
T:Public Domain Courtesy of the Cyber Hymnal™
T:Public Domain Courtesy of the Cyber Hymnal™
C:John Harrison Tenney
Z:Public Domain
Z:Courtesy of the Cyber Hymnal™
%%score ( 1 2 ) ( 3 4 )
L:1/8
Q:1/4=100
M:6/8
K:G
V:1 treble 
V:2 treble 
V:3 bass 
V:4 bass 
V:1
 D | [GB]2 [GB] [Gd]2 [GB] | [GB]2 [FA] G2 G | [FA]2 [FA] ([FA][EG])[FA] | %4
w: 1.~In|robes made white thro’|Je- sus’ blood! We|soon shall meet * be-|
w: 2.~I|fear not now what|ills may come: By|faith I see * my|
w: 3.~O|meet- ing blest, with|friends so dear! What|sounds shall greet * the|
w: 4.~Dear|Sav- ior, guide my|will- ing feet, That|I may have * that|
 [GB]2 [Gd] !fermata![Gd]2 [DG] | [GB]2 [GB] [Gd]2 [GB] | [GB]2 [FA] [EG]2 [FA] | %7
w: yond the flood, And|hold sweet con- verse,|free from pain, Nor|
w: heav’n- ly home, And|hear the an- gel|voic- es say, “Thy|
w: list- ’ning ear! What|thrills of rap- ture|wake the soul As|
w: joy com- plete; And|live to praise thro’|end- less day The|
 [GB]2 [GB] [GB]2 [Ge] | [Fd]3 [E^c]3 | [Fd]3- [Fd]2 [Fc] | [GB]2 [DG] (AG)[DF] | [DG]3- [DG]2 || %12
w: ev- er fear to|part a-|gain, * Be-|yond the swell- * ing|flood. *|
w: God shall wipe all|tears a-|way,” * Be-|yond the swell- * ing|flood! *|
w: back those gold- en|gates shall|roll, * Be-|yond the swell- * ing|flood! *|
w: love that dries all|tears a-|way. * Be-|yond the swell- * ing|flood! *|
"^Refrain" D | [GB]3- [GB]2 [FA] | G2 G G2 [=FG] | [Ec]3- [Ec]2 [DB] | [DA]2 [DA] [DA]2 [DA] | %17
w: |||||
w: Be-|yond * the|swell- ing flood! Be-|yond * the|swell- ing flood! Be-|
w: |||||
w: |||||
 [Dd]3- [Dd]2 [Dd] | [Ed]2 [Ec] [EB]2 [EA] | [DG]2 [DG] [GB]2 [FA] | G3- G2 D | [GB]3- [GB]2 [FA] | %22
w: |||||
w: yond * the|swell- ing flood, We’ll|meet to part no|more! * We’ll|meet * to|
w: |||||
w: |||||
 G2 G G2 [=FG] | [Ec]3- [Ec]2 [DB] | [DA]2 [DA] [DA]2 [DA] | [Dd]3- [Dd]2 [Dd] | %26
w: ||||
w: part no more, We’ll|meet * to|part no more, We’ll|meet * to|
w: ||||
w: ||||
 [Ed]2 [Ec] [EB]2 [EA] | [DG]2 [DG] [GB]2 [FA] | G3- G4 |] %29
w: |||
w: part no more, Be-|yond the swell- ing|flood! *|
w: |||
w: |||
V:2
 D | x6 | x3 G2 G | x6 | x6 | x6 | x6 | x6 | x6 | x6 | x3 E2 x | x5 || D | x6 | G2 G G2 x | x6 | %16
 x6 | x6 | x6 | x6 | G3- G2 D | x6 | G2 G G2 x | x6 | x6 | x6 | x6 | x6 | G3- G4 |] %29
V:3
 [G,B,] | [G,D]2 [G,D] [G,B,]2 [G,D] | [D,D]2 [D,C] [E,B,]2 [E,B,] | [D,D]2 [D,D] [D,D]2 [D,D] | %4
w: ~|~ ~ ~ ~|~ ~ ~ ~|~ ~ ~ ~|
 [G,D]2 [G,B,] !fermata![G,B,]2 [G,B,] | [G,D]2 [G,D] [G,B,]2 [G,D] | [D,D]2 [D,C] [E,B,]2 [D,D] | %7
w: ~ ~ ~ ~|~ ~ ~ ~|~ ~ ~ ~|
 [G,D] [D,D]2 [D,D]2 [G,B,] | A,3 [A,,A,]3 | [D,A,]3- [D,A,]2 [D,D] | [G,D]2 [B,,D] [C,C]2 [D,A,] | %11
w: ~ ~ ~ ~|~ ~|~ * ~|~ ~ ~ ~|
 [G,,B,]3- [G,,B,]2 || [G,B,] | [G,D]2 [G,D] [G,D]2 [D,C] | [E,B,]3- [E,B,]2 [D,B,] | %15
w: ~ *|Be-|yond the swell- ing|flood! * Be-|
 [C,G,]2 [C,G,] [C,G,]2 [G,,G,] | [D,F,]3- [D,F,]2 [C,F,] | [B,,G,]2 [B,,G,] [B,,G,]2 [B,,G,] | %18
w: yond the swell- ing|flood! * Be-|yond the swell- ing|
 (G,2 A, [C,D]2) [C,C] | [D,B,]2 [D,B,] [D,D]2 [D,C] | [G,,B,]3- [G,,B,]2 [G,B,] | %21
w: flood! * * ~|~ ~ ~ ~|~ * We’ll|
 [G,D]2 [G,D] [G,D]2 [D,C] | [E,B,]3- [E,B,]2 [D,B,] | [C,G,]2 [C,G,] [C,G,]2 [C,G,] | %24
w: meet to part no|more! * We’ll|meet to part no|
 [D,F,]3- [D,F,]2 [C,F,] | [B,,G,]2 [B,,G,] [B,,G,]2 [B,,G,] | (G,2 A, [C,D]2) [C,C] | %27
w: more, * We’ll|meet to part no|more, * * *|
 [D,B,]2 [D,B,] [D,C]2 [D,C] | [G,,B,]3- [G,,B,]4 |] %29
w: ||
V:4
 x | x6 | x6 | x6 | x6 | x6 | x6 | x6 | A,3 x3 | x6 | x6 | x5 || x | x6 | x6 | x6 | x6 | x6 | %18
 C,3- x3 | x6 | x6 | x6 | x6 | x6 | x6 | x6 | C,3- x3 | x6 | x7 |] %29

